dist/svg/flag-more.svg

<svg width="16" height="16" viewBox="0 0 16 16" fill="rgb(34, 34, 34)" xmlns="http://www.w3.org/2000/svg"><title>flag-more</title><path d="M13 12H15V14H13V12ZM9.99998 14H12V12H9.99998V14ZM6.99998 14H8.99998V12H6.99998V14ZM15 3C12.75 4.945 7.68998 1.488 7.68998 1.488C6.51998 0.746999 5.09698 0.307999 3.56998 0.307999C2.95998 0.307999 2.36698 0.377999 1.79798 0.510999L1.85098 0.500999H1.00098V16.001H2.00098V9.001C3.00098 8.001 5.99098 8.986 8.00098 9.001C12.298 8.985 15.001 6.686 15.001 3.001L15 3Z" fill="rgb(34, 34, 34)" fill-opacity="1.00"/></svg>

<!-- Generated by Trend Micro Style Portal -->
<svg version="1.1" xmlns="http://www.w3.org/2000/svg" width="16" height="16" viewBox="0 0 16 16">
  <title>flag-more</title>
  <path fill="rgb(34,34,34)" d="M13 12h2v2h-2zM10 14h2v-2h-2zM7 14h2v-2h-2zM15 3c-2.25 1.945-7.31-1.512-7.31-1.512-1.17-0.741-2.593-1.18-4.12-1.18-0.61 0-1.203 0.070-1.772 0.203l0.053-0.010h-0.85v15.5h1v-7c1-1 3.99-0.015 6 0 4.297-0.016 7-2.315 7-6z"></path>
</svg>
